common/resources/fonts/svg/featured.svg

<?xml version="1.0" encoding="UTF-8" standalone="no"?>
<svg width="1024px" height="1024px" viewBox="0 0 1024 1024" version="1.1" xmlns="http://www.w3.org/2000/svg" xmlns:xlink="http://www.w3.org/1999/xlink">
    <!-- Generator: Sketch 42 (36781) - http://www.bohemiancoding.com/sketch -->
    <title>feature</title>
    <desc>Created with Sketch.</desc>
    <defs></defs>
    <g id="Page-1" stroke="none" stroke-width="1" fill="none" fill-rule="evenodd">
        <g id="feature" fill="#000000">
            <path d="M899.375,60 L123.125,60 C99.40625,60 80,79.40625 80,103.125 L80,764.375 C80,788.09375 99.40625,807.5 123.125,807.5 L379.25875,807.5 L261.973125,924.785625 C249.342891,937.415859 249.342891,957.894844 261.973125,970.525078 C268.289141,976.841094 276.567344,980 284.84375,980 C293.120156,980 301.398359,976.841094 307.714375,970.526875 L470.74125,807.5 L482.5,807.5 L482.5,951.25 C482.5,967.128984 495.372813,980 511.25,980 C527.127188,980 540,967.128984 540,951.25 L540,807.5 L551.760547,807.5 L714.787422,970.526875 C721.101641,976.841094 729.379844,980 737.65625,980 C745.932656,980 754.210859,976.841094 760.526875,970.526875 C773.158906,957.896641 773.158906,937.417656 760.526875,924.787422 L643.239453,807.5 L899.375,807.5 C923.09375,807.5 942.5,788.09375 942.5,764.375 L942.5,103.125 C942.5,79.40625 923.09375,60 899.375,60 L899.375,60 Z M798.75,692.5 L223.75,692.5 C207.872813,692.5 195,679.628984 195,663.75 C195,647.871016 207.872813,635 223.75,635 L798.75,635 C814.628984,635 827.5,647.871016 827.5,663.75 C827.5,679.628984 814.628984,692.5 798.75,692.5 Z M298,573 L298,364 L403,364 L403,573 L298,573 Z M455,573 L455,155 L560,155 L560,573 L455,573 Z M612,233 L717,233 L717,573 L612,573 L612,233 Z" id="Combined-Shape"></path>
        </g>
    </g>
</svg>

<svg width="1024" height="1024" viewBox="0 0 1024 1024">
    <path d="M899.375 60h-776.25C99.406 60 80 79.406 80 103.125v661.25c0 23.719 19.406 43.125 43.125 43.125h256.134L261.973 924.786c-12.63 12.63-12.63 33.109 0 45.74 6.316 6.315 14.594 9.474 22.87 9.474 8.277 0 16.555-3.159 22.871-9.473L470.741 807.5H482.5v143.75c0 15.879 12.873 28.75 28.75 28.75S540 967.129 540 951.25V807.5h11.76l163.027 163.027c6.315 6.314 14.593 9.473 22.87 9.473 8.276 0 16.554-3.159 22.87-9.473 12.632-12.63 12.632-33.11 0-45.74L643.239 807.5h256.136c23.719 0 43.125-19.406 43.125-43.125v-661.25C942.5 79.406 923.094 60 899.375 60zM798.75 692.5h-575c-15.877 0-28.75-12.871-28.75-28.75S207.873 635 223.75 635h575c15.879 0 28.75 12.871 28.75 28.75s-12.871 28.75-28.75 28.75zM298 573V364h105v209H298zm157 0V155h105v418H455zm157-340h105v340H612V233z" fill-rule="evenodd"/>
</svg>
